packages/core/src/svg/icon-boots.svg

<?xml version="1.0" encoding="UTF-8"?>
<svg xmlns="http://www.w3.org/2000/svg" width="100%" height="100%" viewBox="0 0 24 24">
  <path d="M20.9964145,2.99964145 L20.9727501,18.1653639 L20.9656508,18.1653639 L3.2299749,18.1653639 C3.43585515,17.7685909 3.77267838,17.442811 4.19627106,17.2519183 L10.8601649,14.3522409 C12.5695231,13.6083901 13.6730728,11.9234851 13.6691287,10.0610972 L13.6667623,2.99964145 L20.9964145,2.99964145 Z M23,1 L11.6923629,1 L11.6671208,1 L11.6702761,10.061886 C11.6718537,11.1275726 11.0392255,12.09308 10.0626748,12.5182503 L3.39089279,15.4218716 C1.93632126,16.0679096 1,17.5098602 1,19.0993188 L1,22.2806024 C1,22.2806024 2.78823951,23.9915382 4.38085335,23.9915382 C5.5790606,23.9915382 6.22667623,23.6444604 6.74887056,23.3652205 C7.17009681,23.1388311 7.47378989,22.9755468 8.17031194,22.9755468 C8.86683399,22.9755468 9.1721047,23.1388311 9.59254213,23.3652205 C10.1139477,23.6444604 10.7615633,23.9915382 11.9605593,23.9915382 C13.1595554,23.9915382 13.8087487,23.6444604 14.3293654,23.3652205 C14.7505916,23.1388311 15.0558623,22.9755468 15.7523844,22.9755468 C16.4473288,22.9755468 16.7525995,23.1388311 17.1738257,23.3652205 C17.6944425,23.6444604 18.3436357,23.9915382 19.541843,23.9915382 C21.0776622,23.9915382 22.966081,22.3973467 22.966081,22.3973467 L23,1 Z M4.38085335,21.9918967 C3.70720688,21.9918967 3.26626031,21.6645393 3.00043026,21.3584797 L3.00043026,20.1642166 L20.9656508,20.1642166 C20.9656508,20.1642166 20.964862,21.4539261 20.9640731,21.4539261 C20.6990319,21.7189674 20.322768,21.9642883 19.541843,21.9918967 C19.5008247,21.9934744 19.461384,21.9942632 19.4219433,21.9942632 C18.8098243,21.9942632 18.515597,21.8159914 18.1196128,21.602223 C17.5982072,21.3229831 16.9498028,20.9759053 15.7523844,20.9759053 C14.5525995,20.9759053 13.9049839,21.3229831 13.3843672,21.602223 C12.9623521,21.8286124 12.658659,21.9918967 11.9605593,21.9918967 C11.2640373,21.9918967 10.9595554,21.8286124 10.5375403,21.602223 C10.0169236,21.3229831 9.369308,20.9759053 8.17031194,20.9759053 C6.9721047,20.9759053 6.32291144,21.3229831 5.80229473,21.602223 C5.38106848,21.8286124 5.07658659,21.9918967 4.38085335,21.9918967 L4.38085335,21.9918967 Z" />
</svg>

<?xml version="1.0" encoding="UTF-8"?><svg viewBox="0 0 24 24" xmlns="http://www.w3.org/2000/svg"><path d="m20.996 2.9996-0.023664 15.166h-0.0070993-17.736c0.20588-0.39677 0.5427-0.72255 0.9663-0.91345l6.6639-2.8997c1.7094-0.74385 2.8129-2.4288 2.809-4.2911l-0.0023664-7.0615h7.3297zm2.0036-1.9996h-11.308-0.025242l0.0031553 9.0619c0.0015776 1.0657-0.63105 2.0312-1.6076 2.4564l-6.6718 2.9036c-1.4546 0.64604-2.3909 2.088-2.3909 3.6774v3.1813s1.7882 1.7109 3.3809 1.7109c1.1982 0 1.8458-0.34708 2.368-0.62632 0.42123-0.22639 0.72492-0.38967 1.4214-0.38967s1.0018 0.16328 1.4222 0.38967c0.52141 0.27924 1.169 0.62632 2.368 0.62632 1.199 0 1.8482-0.34708 2.3688-0.62632 0.42123-0.22639 0.7265-0.38967 1.423-0.38967 0.69494 0 1.0002 0.16328 1.4214 0.38967 0.52062 0.27924 1.1698 0.62632 2.368 0.62632 1.5358 0 3.4242-1.5942 3.4242-1.5942l0.033919-21.397zm-18.619 20.992c-0.67365 0-1.1146-0.32736-1.3804-0.63342v-1.1943h17.965s-7.888e-4 1.2897-0.0015777 1.2897c-0.26504 0.26504-0.64131 0.51036-1.4222 0.53797-0.041018 0.0015777-0.080459 0.0023665-0.1199 0.0023665-0.61212 0-0.90635-0.17827-1.3023-0.39204-0.52141-0.27924-1.1698-0.62632-2.3672-0.62632-1.1998 0-1.8474 0.34708-2.368 0.62632-0.42202 0.22639-0.72571 0.38967-1.4238 0.38967-0.69652 0-1.001-0.16328-1.423-0.38967-0.52062-0.27924-1.1682-0.62632-2.3672-0.62632-1.1982 0-1.8474 0.34708-2.368 0.62632-0.42123 0.22639-0.72571 0.38967-1.4214 0.38967z"/></svg>
